X:171
T:Ladies Pleasure - Field Town
M:6/8
L:1/8
K:G
g | gfe edc | BcA G2 D | (4GABc (4dedc | B2 A G2 ||
A | Bcd d2 A | Bcd d2 A | Bcd edc | BcA G2 g |
gfe edc | BcA G2 D | (4GABc (4dedc | B2 A G2 ||
g | g f e3 | e d c3 | B c A3 | G3 D3 | (4GABc (4dedc |
B2 A G g | g f e3 | e d c3 | B c A3 | G3 D3 |
(4GABc (4dedc | B2 A G2 |
